!!!COM:	Busnoys, Antoine
!!!CDT:	~1430///-1492/11/06
!!!OTL:	Au povre par necessit&eacute;
!!!AGN:	Song; Chanson
!!!SCT:	Bus3007
!!!SCA:	Bus3007
!!!voices:	3
**kern	**kern	**kern
*staff3	*staff2	*staff1
*Ivox	*Ivox	*Ivox
*I"Contratenor	*I"Tenor	*I"Cantus
*I'Ct	*I'T	*I'Cn
*clefF4	*clefGv2	*clefG2
*k[b-e-]	*k[b-e-]	*k[b-e-]
*M2/1	*M2/1	*M2/1
*met(C|)	*met(C|)	*met(C|)
=1-	=1-	=1-
!	!	!LO:TX:Z=18:t=Rondeau
1.C	[0c	0c
2D	.	.
=2	=2	=2
1E-	0c_	1c
1F	.	1c
=3	=3	=3
0C	0c_	1.e-
.	.	2f
=4	=4	=4
1r	0c]	1g
1F	.	1a
=5	=5	=5
1E-	0c	1g
2.C	.	1cc
4D	.	.
=6	=6	=6
1E-	1G	1b-
1C	1c	1ee-
=7	=7	=7
0G	1.B-	2dd
.	.	1dd
.	2c	4cc
.	.	4b-
=8	=8	=8
1F	1d	1a
[1E-	1e-	[1g
=9	=9	=9
1E-]	0c	2g]
.	.	2f
1C	.	1e-
=10	=10	=10
0G	0B-	1d
.	.	[1g
=11	=11	=11
0D	0A	2g]
.	.	2f#i
.	.	2f#i
.	.	2eni
=12	=12	=12
1E-	1G	1g
1F	1F	1a
=13	=13	=13
1G	1B-	1g
1D	1A	1f
=14	=14	=14
1E-	1G	1g
1C	[1c	1e-
=15	=15	=15
0G	1c]	0d
.	1B-	.
=16	=16	=16
1r	[0e-	0c
[1C	.	.
=17	=17	=17
2C]	0e-]	1r
2D	.	.
1E-	.	1g
=18	=18	=18
1F	0d	1a
1G	.	1b-
=19	=19	=19
1C	0c	1.cc
1A	.	.
.	.	4b-
.	.	4a
=20	=20	=20
0G	[0g	1.b-
.	.	4cc
.	.	4dd
=21	=21	=21
1c	1g]	1ee-
1d	1f	[1dd
=22	=22	=22
1G	1g	2dd]
.	.	2cc
1c	1e-	[1cc
=23	=23	=23
0G	0d	1cc]
.	.	1bni
=24	=24	=24
0C	1c	0cc
.	[1e-	.
=25	=25	=25
1c	2e-]	1r
.	2d	.
1A	1c	1cc
=26	=26	=26
1G	1B-	0dd
2.B-	1G	.
4A	.	.
=27	=27	=27
0F	0A	1cc
.	.	1a
=28	=28	=28
1r	1.G	1b-
[1E-	.	[1g
.	2A	.
=29	=29	=29
1E-]	2B-	1g]
.	2c	.
1D	1d	1f
=30	=30	=30
1C	1e-	1g
1E-	[1c	1e-
=31	=31	=31
1F	1c]	0d
1G	1B-	.
=32	=32	=32
0C	[0e-	1r
.	.	[1c
=33	=33	=33
1r	0e-]	2c]
.	.	2d
[1c	.	2e-
.	.	2f
=34	=34	=34
1c]	1e-	1g
1F	1f	1a
=35	=35	=35
1c	1e-	1g
1A	1c	1cc
=36	=36	=36
1G	1d	1b-
1E-	1e-	1g
=37	=37	=37
0F	0c	2a
.	.	2g
.	.	2f
.	.	2e-
=38	=38	=38
[0GN	[0B-N	0dN
=39	=39	=39
0G]	0B-]	0r
=40	=40	=40
0C	1r	0e-
.	1c	.
=41	=41	=41
1r	1G	1d
1F	1A	1c
=42	=42	=42
1G	1G	1B-
1A	[1c	1c
=43	=43	=43
0G	1c]	0d
.	1Bni	.
=44	=44	=44
1A	[0c	0c
[1F	.	.
=45	=45	=45
2F]	0c]	1r
2E-	.	.
1C	.	[1g
=46	=46	=46
0c	0e-	2g]
.	.	2f
.	.	1g
=47	=47	=47
1F	1f	1a
1G	1d	1b-
=48	=48	=48
1c	1e-	1cc
1B-	1f	1dd
=49	=49	=49
1G	0g	1b-
1c	.	[1ee-
=50	=50	=50
1d	0f	2ee-]
.	.	4dd
.	.	4cc
1B-	.	[1dd
=51	=51	=51
0c	0e-	2dd]
.	.	4cc
.	.	4b-
.	.	[1cc
=52	=52	=52
0G	0d	2cc]
.	.	4bni
.	.	4a
.	.	1bni
=53	=53	=53
1C	[0c	1.cc
[1F	.	.
.	.	2b-
=54	=54	=54
1F]	1c]	2a
.	.	2g
1G	1B-	[1g
=55	=55	=55
0D	0A	1g]
.	.	1f#i
=56	=56	=56
1E-	1G	0g
1C	1c	.
=57	=57	=57
0G	1d	1r
.	1e-	1g
=58	=58	=58
1F	1f	1a
1G	1d	1b-
=59	=59	=59
2.A	1c	2.cc
4B-	.	4b-
1c	2.e-	1g
.	4f	.
=60	=60	=60
1c	1g	2r
.	.	2c
2B-	2r	2d
2A	2c	2e-
=61	=61	=61
2F	2A	2f
2G	2B-	2d
2C	2c	2e-
2D	2A	2f
=62	=62	=62
2E-	2G	2g
2C	1c	2e-
1G	.	1d
.	2B-	.
=63	=63	=63
1C	0e-	1c
1c	.	2r
.	.	2g
=64	=64	=64
2r	1d	2a
2G	.	2b-
1A	1c	2cc
.	.	2a
=65	=65	=65
1G	1.g	2b-
.	.	4cc
.	.	4dd
2c	.	2ee-
2d	2f	[2dd
=66	=66	=66
2G	2g	4dd]
.	.	4cc
2c	2e-	1cc
1G	1d	.
.	.	2bni
=67	=67	=67
0Cl	0cl	0ccl
==	==	==
*-	*-	*-
!!!RDF**kern: l=long note in original notation
!!!RDF**kern: i=editorial accidental
!!!RDF**kern: N=signum congruentiae
!!!ENC:	Chris Gage 02-12-2015
!!!END:	2015/02/20/
!!!EED:	Jesse Rodin
!!!EEV:	2015/05/10/
!!!ONB:	Translated from MusicXML and edited on 2015/05/10/ by Craig Sapp
!!muse2ps: C^@{COM}^i2I150v95,95,150Q16
